svg/fluentui-system-icons/ic_fluent_run_24_filled.svg

<svg width="24" height="24" viewBox="0 0 24 24" fill="none" xmlns="http://www.w3.org/2000/svg">
<path d="M11.0293 2.58482C10.9053 2.53827 10.7711 2.52549 10.6405 2.54777C9.6541 2.71611 8.64538 3.20394 7.73543 3.77716C6.81627 4.35618 5.94808 5.05431 5.23579 5.69614C4.68445 6.19293 4.21774 6.66393 3.88431 7.0325C3.87773 7.03977 3.8713 7.04717 3.86501 7.05469C3.76956 7.16892 3.60428 7.34267 3.40268 7.5546C3.34371 7.61659 3.28163 7.68185 3.21728 7.74984C2.96151 8.0201 2.65482 8.34908 2.48112 8.59496C2.09989 9.1346 1.73451 9.71573 1.39409 10.3398C1.29415 10.523 1.27529 10.7397 1.34205 10.9374C2.24133 13.6006 5.04562 16.0445 8.33253 17.8014C11.6515 19.5754 15.649 20.751 19.1717 20.751H20.0092C20.4223 20.751 20.7573 20.416 20.7573 20.0029V17.2066C20.7573 16.1659 20.1693 15.2144 19.2385 14.7488L16.8564 13.5574C16.4589 13.0754 15.9927 12.3763 15.607 11.6294C15.2349 10.9088 14.9727 10.2106 14.8876 9.65928L15.4292 8.76718C15.8968 7.99698 16.597 7.39524 17.4287 7.04877L18.2877 6.69099C18.571 6.57298 18.7535 6.29391 18.748 5.98706C18.7426 5.68021 18.5502 5.40782 18.2629 5.29997L11.0293 2.58482ZM19.261 17.2188C17.6775 17.0089 17.0108 16.821 15.7486 16.4571L16.6398 15.122L18.5692 16.087C18.9932 16.2991 19.261 16.7325 19.261 17.2066V17.2188ZM15.2604 17.8735C16.653 18.2751 17.391 18.4879 19.261 18.7276V19.2547H19.1717C15.9453 19.2547 12.1889 18.1661 9.03786 16.4818C6.00626 14.8614 3.70166 12.781 2.87275 10.7609C2.9592 10.61 3.04722 10.4619 3.13663 10.3166C3.98836 11.33 5.29456 12.5857 7.05262 13.8711C8.49682 14.9271 9.65879 15.6566 11.736 16.6462C11.7564 16.6559 11.7772 16.6647 11.7984 16.6725L14.2978 17.5961C14.3164 17.603 14.3352 17.6091 14.3543 17.6145C14.6902 17.7091 14.9879 17.795 15.2604 17.8735ZM8.7871 8.93517L6.76332 6.34983C7.30901 5.89112 7.91333 5.43348 8.53295 5.04315C9.29526 4.56294 10.0404 4.21043 10.7027 4.06043L16.0616 6.07188C15.2843 6.54789 14.6276 7.20434 14.1502 7.99068L13.8236 8.5286L11.0807 7.25871C10.8029 7.1301 10.4748 7.1837 10.2524 7.39402C10.0299 7.60435 9.95809 7.92896 10.071 8.2135L12.2227 13.6371L11.6733 14.9511C10.2818 14.2556 9.35257 13.678 8.31458 12.9372L8.93406 9.53015C8.97228 9.31994 8.9188 9.10342 8.7871 8.93517Z" fill="#212121"/>
</svg>

<svg xmlns="http://www.w3.org/2000/svg" width="24" height="24"><path d="M11.03 2.585a.748.748 0 0 0-.39-.037c-.986.168-1.995.656-2.905 1.23a18.846 18.846 0 0 0-2.5 1.918 19.238 19.238 0 0 0-1.37 1.359c-.095.114-.26.288-.462.5l-.186.195c-.255.27-.562.6-.736.845-.381.54-.746 1.12-1.087 1.745-.1.183-.119.4-.052.597.9 2.664 3.704 5.107 6.99 6.864 3.32 1.774 7.317 2.95 10.84 2.95h.837a.748.748 0 0 0 .748-.748v-2.796a2.747 2.747 0 0 0-1.519-2.458l-2.382-1.192a11.4 11.4 0 0 1-1.249-1.928c-.372-.72-.634-1.418-.72-1.97l.542-.892a4.252 4.252 0 0 1 2-1.718l.859-.358a.748.748 0 0 0-.025-1.391l-7.234-2.715Zm8.231 14.634c-1.584-.21-2.25-.398-3.512-.762l.89-1.335 1.93.965c.424.212.692.646.692 1.12v.012Zm-4 .654c1.392.402 2.13.615 4 .855v.527h-.09c-3.226 0-6.982-1.089-10.133-2.773-3.032-1.62-5.336-3.701-6.165-5.721.086-.151.174-.3.264-.444.851 1.013 2.158 2.269 3.916 3.554 1.444 1.056 2.606 1.786 4.683 2.775.02.01.041.019.062.026l2.5.924a.745.745 0 0 0 .056.018c.336.095.634.181.906.26ZM8.786 8.935 6.763 6.35c.546-.459 1.15-.917 1.77-1.307.762-.48 1.507-.833 2.17-.983l5.359 2.012A5.748 5.748 0 0 0 14.15 7.99l-.326.538-2.743-1.27a.748.748 0 0 0-1.01.954l2.152 5.424-.55 1.314a23.145 23.145 0 0 1-3.358-2.014l.62-3.407a.748.748 0 0 0-.148-.595Z"/></svg>
